X: 389
T:Paddy O'Brien's
T:Harvest Moon
C:Paddy O'Brien
H:Mike played it following the Tara reel
D:Martin Connolly "Back to Brooklyn"
Z:lesl
M:C|
L:1/8
K:Ador
A2EA FAEA|BzAB GABG|AE~E2 A2 (3Bcd|edef gzed|
eaag ed(3Bcd|g{a}g fa gedz|edBA BGGA|1 BedB A4:|2 BedB Az (3Bcd||
|:eaaf g~g2z|eaag ed (3Bcd|ezaf g~g2e|dG~G2 AG (3Bcd|ea~a2 bg~g2|
agab gzag|edBA BGGA|1 BedB A2 (3Bcd:|2 BedB A4||
<end>
<start>
